assets/cards/nicubunu-White-deck-King-of-spades.svg

<?xml version="1.0" encoding="UTF-8" standalone="no"?>
<svg
   xmlns:dc="http://purl.org/dc/elements/1.1/"
   xmlns:cc="http://creativecommons.org/ns#"
   xmlns:rdf="http://www.w3.org/1999/02/22-rdf-syntax-ns#"
   xmlns:svg="http://www.w3.org/2000/svg"
   xmlns="http://www.w3.org/2000/svg"
   xmlns:sodipodi="http://sodipodi.sourceforge.net/DTD/sodipodi-0.dtd"
   xmlns:inkscape="http://www.inkscape.org/namespaces/inkscape"
   id="svg2"
   sodipodi:docname="nicubunu-White-deck-King-of-spades.svg"
   viewBox="0 0 140 190"
   sodipodi:version="0.32"
   version="1.0"
   y="0"
   x="0"
   inkscape:version="1.0.2-2 (e86c870879, 2021-01-15)">
  <sodipodi:namedview
     id="base"
     bordercolor="#666666"
     inkscape:pageshadow="2"
     inkscape:window-y="26"
     pagecolor="#ffffff"
     inkscape:window-height="1023"
     inkscape:zoom="1"
     inkscape:window-x="0"
     borderopacity="1.0"
     inkscape:current-layer="svg2"
     inkscape:cx="70"
     inkscape:cy="95"
     inkscape:window-width="1728"
     inkscape:pageopacity="0.0"
     inkscape:document-rotation="0"
     showgrid="false"
     inkscape:window-maximized="0" />
  <defs
     id="defs3">
    <linearGradient
       id="linearGradient6214">
      <stop
         id="stop6216"
         style="stop-color:#c10000"
         offset="0" />
      <stop
         id="stop6218"
         style="stop-color:#ff433e"
         offset="1" />
    </linearGradient>
    <linearGradient
       id="linearGradient5407">
      <stop
         id="stop5409"
         style="stop-color:#f0eb00"
         offset="0" />
      <stop
         id="stop5411"
         style="stop-color:#ffff00"
         offset="1" />
    </linearGradient>
  </defs>
  <g
     id="layer1"
     inkscape:label="Layer 1"
     inkscape:groupmode="layer">
    <g
       id="g5630">
      <path
         id="rect2070"
         style="fill-opacity:.49804;fill:#000000"
         d="m21 5h103c8.86 0 16 7.136 16 16v153c0 8.86-7.14 16-16 16h-103c-8.864 0-16-7.14-16-16v-153c0-8.864 7.136-16 16-16z" />
      <path
         id="rect1300"
         style="fill:#e7e7e7"
         d="m17 1h103c8.86 0 16 7.136 16 16v153c0 8.86-7.14 16-16 16h-103c-8.864 0-16-7.14-16-16v-153c0-8.864 7.136-16 16-16z" />
      <path
         id="path5624"
         style="fill:#c7891f"
         d="m19 3h103c8.86 0 16 7.136 16 16v153c0 8.86-7.14 16-16 16h-103c-8.864 0-16-7.14-16-16v-153c0-8.864 7.136-16 16-16z" />
      <path
         id="rect1306"
         style="fill:#ffffff"
         d="m18 2h103c8.86 0 16 7.136 16 16v153c0 8.86-7.14 16-16 16h-103c-8.864 0-16-7.14-16-16v-153c0-8.864 7.136-16 16-16z" />
    </g>
  </g>
  <path
     id="text1481"
     style="fill:#000000"
     d="m10.027 12.24h6.396v10.951l9.221-10.951h7.426l-11.945 14.206 13.174 15.794h-8.007l-9.869-11.815v11.815h-6.396v-30" />
  <path
     id="text4064"
     style="fill:#000000"
     d="m128.66 176.63h-6.39v-10.95l-9.22 10.95h-7.43l11.95-14.21-13.18-15.79h8.01l9.87 11.82v-11.82h6.39v30" />
  <path
     id="path1561"
     sodipodi:nodetypes="cccccccccc"
     style="fill-rule:evenodd;fill:#000000"
     d="m20.775 48.665c-4.925 7.825-20.035 21.149-10.463 25.263 5.811 1.894 8.576-1.983 9.747-4.549h0.235l-3.859 12.946 8.937-0.038s-3.85-12.445-3.859-12.921h0.094c0.946 2.097 4.536 6.439 8.484 4.785 11.546-4.635-5.455-17.824-9.316-25.486z" />
  <path
     id="path2018"
     sodipodi:nodetypes="cccccccccc"
     style="fill-rule:evenodd;fill:#000000"
     d="m118.67 140c4.92-7.82 20.03-21.15 10.46-25.26-5.81-1.9-8.58 1.98-9.75 4.55h-0.23l3.86-12.95-8.94 0.04s3.85 12.44 3.86 12.92h-0.1c-0.94-2.1-4.53-6.44-8.48-4.79-11.547 4.64 5.45 17.83 9.32 25.49z" />
  <metadata
     id="metadata61">
    <rdf:RDF>
      <cc:Work>
        <dc:format>image/svg+xml</dc:format>
        <dc:type
           rdf:resource="http://purl.org/dc/dcmitype/StillImage" />
        <cc:license
           rdf:resource="http://creativecommons.org/licenses/publicdomain/" />
        <dc:publisher>
          <cc:Agent
             rdf:about="http://openclipart.org/">
            <dc:title>Openclipart</dc:title>
          </cc:Agent>
        </dc:publisher>
        <dc:title>White deck: King of spades</dc:title>
        <dc:date>2009-03-24T13:44:09</dc:date>
        <dc:description>playing card from the &quot;White&quot; set</dc:description>
        <dc:source>https://openclipart.org/detail/23228/white-deck:-king-of-spades-by-nicubunu</dc:source>
        <dc:creator>
          <cc:Agent>
            <dc:title>nicubunu</dc:title>
          </cc:Agent>
        </dc:creator>
        <dc:subject>
          <rdf:Bag>
            <rdf:li>card</rdf:li>
            <rdf:li>cards</rdf:li>
            <rdf:li>deck</rdf:li>
            <rdf:li>gambling</rdf:li>
            <rdf:li>game</rdf:li>
            <rdf:li>play</rdf:li>
            <rdf:li>playing cards</rdf:li>
            <rdf:li>white deck</rdf:li>
          </rdf:Bag>
        </dc:subject>
      </cc:Work>
      <cc:License
         rdf:about="http://creativecommons.org/licenses/publicdomain/">
        <cc:permits
           rdf:resource="http://creativecommons.org/ns#Reproduction" />
        <cc:permits
           rdf:resource="http://creativecommons.org/ns#Distribution" />
        <cc:permits
           rdf:resource="http://creativecommons.org/ns#DerivativeWorks" />
      </cc:License>
    </rdf:RDF>
  </metadata>
</svg>

<?xml version="1.0" encoding="UTF-8" standalone="no"?>
<svg
   xmlns:dc="http://purl.org/dc/elements/1.1/"
   xmlns:cc="http://creativecommons.org/ns#"
   xmlns:rdf="http://www.w3.org/1999/02/22-rdf-syntax-ns#"
   xmlns:svg="http://www.w3.org/2000/svg"
   xmlns="http://www.w3.org/2000/svg"
   xmlns:sodipodi="http://sodipodi.sourceforge.net/DTD/sodipodi-0.dtd"
   xmlns:inkscape="http://www.inkscape.org/namespaces/inkscape"
   id="svg2"
   sodipodi:docname="nicubunu-White-deck-King-of-spades.svg"
   viewBox="0 0 140 190"
   sodipodi:version="0.32"
   version="1.0"
   y="0"
   x="0"
   inkscape:version="1.0.2-2 (e86c870879, 2021-01-15)">
  <sodipodi:namedview
     id="base"
     bordercolor="#666666"
     inkscape:pageshadow="2"
     inkscape:window-y="26"
     pagecolor="#ffffff"
     inkscape:window-height="1023"
     inkscape:zoom="2.8284271"
     inkscape:window-x="0"
     borderopacity="1.0"
     inkscape:current-layer="layer1"
     inkscape:cx="44.204798"
     inkscape:cy="108.99877"
     inkscape:window-width="1728"
     inkscape:pageopacity="0.0"
     inkscape:document-rotation="0"
     showgrid="false"
     inkscape:window-maximized="0" />
  <defs
     id="defs3">
    <linearGradient
       id="linearGradient6214">
      <stop
         id="stop6216"
         style="stop-color:#c10000"
         offset="0" />
      <stop
         id="stop6218"
         style="stop-color:#ff433e"
         offset="1" />
    </linearGradient>
    <linearGradient
       id="linearGradient5407">
      <stop
         id="stop5409"
         style="stop-color:#f0eb00"
         offset="0" />
      <stop
         id="stop5411"
         style="stop-color:#ffff00"
         offset="1" />
    </linearGradient>
  </defs>
  <g
     id="layer1"
     inkscape:label="Layer 1"
     inkscape:groupmode="layer">
    <path
       id="rect2070"
       style="fill:#000000;fill-opacity:0.49804"
       d="m 21,5 h 103 c 8.86,0 16,7.136 16,16 v 153 c 0,8.86 -7.14,16 -16,16 H 21 C 12.136,190 5,182.86 5,174 V 21 C 5,12.136 12.136,5 21,5 Z" />
    <path
       id="rect1300"
       style="fill:#000000"
       d="m 17,1 h 103 c 8.86,0 16,7.136 16,16 v 153 c 0,8.86 -7.14,16 -16,16 H 17 C 8.136,186 1,178.86 1,170 V 17 C 1,8.136 8.136,1 17,1 Z" />
    <path
       id="path5624"
       style="fill:#000000"
       d="m 19,3 h 103 c 8.86,0 16,7.136 16,16 v 153 c 0,8.86 -7.14,16 -16,16 H 19 C 10.136,188 3,180.86 3,172 V 19 C 3,10.136 10.136,3 19,3 Z" />
    <path
       id="rect1306"
       style="fill:#ffffff"
       d="m 18,2 h 103 c 8.86,0 16,7.136 16,16 v 153 c 0,8.86 -7.14,16 -16,16 H 18 C 9.136,187 2,179.86 2,171 V 18 C 2,9.136 9.136,2 18,2 Z" />
  </g>
  <path
     id="text1481"
     style="fill:#000000"
     d="m10.027 12.24h6.396v10.951l9.221-10.951h7.426l-11.945 14.206 13.174 15.794h-8.007l-9.869-11.815v11.815h-6.396v-30" />
  <path
     id="text4064"
     style="fill:#000000"
     d="m128.66 176.63h-6.39v-10.95l-9.22 10.95h-7.43l11.95-14.21-13.18-15.79h8.01l9.87 11.82v-11.82h6.39v30" />
  <path
     id="path1561"
     sodipodi:nodetypes="cccccccccc"
     style="fill-rule:evenodd;fill:#000000"
     d="m20.775 48.665c-4.925 7.825-20.035 21.149-10.463 25.263 5.811 1.894 8.576-1.983 9.747-4.549h0.235l-3.859 12.946 8.937-0.038s-3.85-12.445-3.859-12.921h0.094c0.946 2.097 4.536 6.439 8.484 4.785 11.546-4.635-5.455-17.824-9.316-25.486z" />
  <path
     id="path2018"
     sodipodi:nodetypes="cccccccccc"
     style="fill-rule:evenodd;fill:#000000"
     d="m118.67 140c4.92-7.82 20.03-21.15 10.46-25.26-5.81-1.9-8.58 1.98-9.75 4.55h-0.23l3.86-12.95-8.94 0.04s3.85 12.44 3.86 12.92h-0.1c-0.94-2.1-4.53-6.44-8.48-4.79-11.547 4.64 5.45 17.83 9.32 25.49z" />
  <metadata
     id="metadata61">
    <rdf:RDF>
      <cc:Work>
        <dc:format>image/svg+xml</dc:format>
        <dc:type
           rdf:resource="http://purl.org/dc/dcmitype/StillImage" />
        <cc:license
           rdf:resource="http://creativecommons.org/licenses/publicdomain/" />
        <dc:publisher>
          <cc:Agent
             rdf:about="http://openclipart.org/">
            <dc:title>Openclipart</dc:title>
          </cc:Agent>
        </dc:publisher>
        <dc:title>White deck: King of spades</dc:title>
        <dc:date>2009-03-24T13:44:09</dc:date>
        <dc:description>playing card from the &quot;White&quot; set</dc:description>
        <dc:source>https://openclipart.org/detail/23228/white-deck:-king-of-spades-by-nicubunu</dc:source>
        <dc:creator>
          <cc:Agent>
            <dc:title>nicubunu</dc:title>
          </cc:Agent>
        </dc:creator>
        <dc:subject>
          <rdf:Bag>
            <rdf:li>card</rdf:li>
            <rdf:li>cards</rdf:li>
            <rdf:li>deck</rdf:li>
            <rdf:li>gambling</rdf:li>
            <rdf:li>game</rdf:li>
            <rdf:li>play</rdf:li>
            <rdf:li>playing cards</rdf:li>
            <rdf:li>white deck</rdf:li>
          </rdf:Bag>
        </dc:subject>
      </cc:Work>
      <cc:License
         rdf:about="http://creativecommons.org/licenses/publicdomain/">
        <cc:permits
           rdf:resource="http://creativecommons.org/ns#Reproduction" />
        <cc:permits
           rdf:resource="http://creativecommons.org/ns#Distribution" />
        <cc:permits
           rdf:resource="http://creativecommons.org/ns#DerivativeWorks" />
      </cc:License>
    </rdf:RDF>
  </metadata>
</svg>
